static/img/kroki/6e185652e49565a4bdd7432f84121d9b.svg

<?xml version="1.0" encoding="us-ascii" standalone="no"?><svg xmlns="http://www.w3.org/2000/svg" xmlns:xlink="http://www.w3.org/1999/xlink" contentStyleType="text/css" height="806px" preserveAspectRatio="none" style="width:241px;height:806px;" version="1.1" viewBox="0 0 241 806" width="241px" zoomAndPan="magnify"><defs/><g><!--class bucket_quota--><g id="elem_bucket_quota"><rect codeLine="23" fill="#3D176E" height="39.7891" id="bucket_quota" rx="2.5" ry="2.5" style="stroke:#000D19;stroke-width:0.5;" width="155" x="43" y="760.34"/><ellipse cx="58" cy="780.2345" fill="#ADD1B2" rx="11" ry="11" style="stroke:#181818;stroke-width:1.0;"/><path d="M60.9688,785.8752 Q60.3906,786.172 59.75,786.3127 Q59.1094,786.4689 58.4063,786.4689 Q55.9063,786.4689 54.5781,784.8283 Q53.2656,783.172 53.2656,780.047 Q53.2656,776.922 54.5781,775.2658 Q55.9063,773.6095 58.4063,773.6095 Q59.1094,773.6095 59.75,773.7658 Q60.4063,773.922 60.9688,774.2189 L60.9688,776.9377 Q60.3438,776.3595 59.75,776.0939 Q59.1563,775.8127 58.5313,775.8127 Q57.1875,775.8127 56.5,776.8908 Q55.8125,777.9533 55.8125,780.047 Q55.8125,782.1408 56.5,783.2189 Q57.1875,784.2814 58.5313,784.2814 Q59.1563,784.2814 59.75,784.0158 Q60.3438,783.7345 60.9688,783.1564 L60.9688,785.8752 Z " fill="#000000"/><text fill="#D9B8FF" font-family="Helvetica" font-size="17" lengthAdjust="spacing" textLength="113" x="77" y="786.1198">bucket_quota</text></g><!--class phantom_resource--><g id="elem_phantom_resource"><rect codeLine="26" fill="#3D176E" height="39.7891" id="phantom_resource" rx="2.5" ry="2.5" style="stroke:#000D19;stroke-width:0.5;" width="198" x="21.5" y="438.76"/><ellipse cx="36.5" cy="458.6545" fill="#ADD1B2" rx="11" ry="11" style="stroke:#181818;stroke-width:1.0;"/><path d="M39.4688,464.2952 Q38.8906,464.592 38.25,464.7327 Q37.6094,464.8889 36.9063,464.8889 Q34.4063,464.8889 33.0781,463.2483 Q31.7656,461.592 31.7656,458.467 Q31.7656,455.342 33.0781,453.6858 Q34.4063,452.0295 36.9063,452.0295 Q37.6094,452.0295 38.25,452.1858 Q38.9063,452.342 39.4688,452.6389 L39.4688,455.3577 Q38.8438,454.7795 38.25,454.5139 Q37.6563,454.2327 37.0313,454.2327 Q35.6875,454.2327 35,455.3108 Q34.3125,456.3733 34.3125,458.467 Q34.3125,460.5608 35,461.6389 Q35.6875,462.7014 37.0313,462.7014 Q37.6563,462.7014 38.25,462.4358 Q38.8438,462.1545 39.4688,461.5764 L39.4688,464.2952 Z " fill="#000000"/><text fill="#D9B8FF" font-family="Helvetica" font-size="17" lengthAdjust="spacing" textLength="156" x="55.5" y="464.5398">phantom_resource</text></g><!--class quota--><g id="elem_quota"><rect codeLine="29" fill="#3D176E" height="39.7891" id="quota" rx="2.5" ry="2.5" style="stroke:#000D19;stroke-width:0.5;" width="90" x="75.5" y="599.55"/><ellipse cx="90.5" cy="619.4445" fill="#ADD1B2" rx="11" ry="11" style="stroke:#181818;stroke-width:1.0;"/><path d="M93.4688,625.0852 Q92.8906,625.382 92.25,625.5227 Q91.6094,625.6789 90.9063,625.6789 Q88.4063,625.6789 87.0781,624.0383 Q85.7656,622.382 85.7656,619.257 Q85.7656,616.132 87.0781,614.4758 Q88.4063,612.8195 90.9063,612.8195 Q91.6094,612.8195 92.25,612.9758 Q92.9063,613.132 93.4688,613.4289 L93.4688,616.1477 Q92.8438,615.5695 92.25,615.3039 Q91.6563,615.0227 91.0313,615.0227 Q89.6875,615.0227 89,616.1008 Q88.3125,617.1633 88.3125,619.257 Q88.3125,621.3508 89,622.4289 Q89.6875,623.4914 91.0313,623.4914 Q91.6563,623.4914 92.25,623.2258 Q92.8438,622.9445 93.4688,622.3664 L93.4688,625.0852 Z " fill="#000000"/><text fill="#D9B8FF" font-family="Helvetica" font-size="17" lengthAdjust="spacing" textLength="48" x="109.5" y="625.3298">quota</text></g><!--class resource--><g id="elem_resource"><rect codeLine="32" fill="#3D176E" height="310.7578" id="resource" rx="2.5" ry="2.5" style="stroke:#000D19;stroke-width:0.5;" width="227" x="7" y="7"/><ellipse cx="75.75" cy="26.8945" fill="#ADD1B2" rx="11" ry="11" style="stroke:#181818;stroke-width:1.0;"/><path d="M78.7188,32.5352 Q78.1406,32.832 77.5,32.9727 Q76.8594,33.1289 76.1563,33.1289 Q73.6563,33.1289 72.3281,31.4883 Q71.0156,29.832 71.0156,26.707 Q71.0156,23.582 72.3281,21.9258 Q73.6563,20.2695 76.1563,20.2695 Q76.8594,20.2695 77.5,20.4258 Q78.1563,20.582 78.7188,20.8789 L78.7188,23.5977 Q78.0938,23.0195 77.5,22.7539 Q76.9063,22.4727 76.2813,22.4727 Q74.9375,22.4727 74.25,23.5508 Q73.5625,24.6133 73.5625,26.707 Q73.5625,28.8008 74.25,29.8789 Q74.9375,30.9414 76.2813,30.9414 Q76.9063,30.9414 77.5,30.6758 Q78.0938,30.3945 78.7188,29.8164 L78.7188,32.5352 Z " fill="#000000"/><text fill="#D9B8FF" font-family="Helvetica" font-size="17" lengthAdjust="spacing" textLength="71" x="101.25" y="32.7798">resource</text><line style="stroke:#000D19;stroke-width:0.5;" x1="8" x2="233" y1="46.7891" y2="46.7891"/><text fill="#D9B8FF" font-family="sans-serif" font-size="14" font-weight="bold" lengthAdjust="spacing" textLength="29" x="18" y="68.7842">age</text><text fill="#D9B8FF" font-family="sans-serif" font-size="14" lengthAdjust="spacing" textLength="66" x="47" y="68.7842">: duration</text><text fill="#D9B8FF" font-family="sans-serif" font-size="14" font-weight="bold" lengthAdjust="spacing" textLength="43" x="18" y="95.0811">atime</text><text fill="#D9B8FF" font-family="sans-serif" font-size="14" lengthAdjust="spacing" textLength="70" x="61" y="95.0811">: datetime</text><text fill="#D9B8FF" font-family="sans-serif" font-size="14" font-weight="bold" lengthAdjust="spacing" textLength="43" x="18" y="121.3779">ctime</text><text fill="#D9B8FF" font-family="sans-serif" font-size="14" lengthAdjust="spacing" textLength="70" x="61" y="121.3779">: datetime</text><text fill="#D9B8FF" font-family="sans-serif" font-size="14" font-weight="bold" lengthAdjust="spacing" textLength="14" x="18" y="147.6748">id</text><text fill="#D9B8FF" font-family="sans-serif" font-size="14" lengthAdjust="spacing" textLength="48" x="32" y="147.6748">: string</text><text fill="#D9B8FF" font-family="sans-serif" font-size="14" font-weight="bold" lengthAdjust="spacing" textLength="33" x="18" y="173.9717">kind</text><text fill="#D9B8FF" font-family="sans-serif" font-size="14" lengthAdjust="spacing" textLength="48" x="51" y="173.9717">: string</text><text fill="#D9B8FF" font-family="sans-serif" font-size="14" font-weight="bold" lengthAdjust="spacing" textLength="90" x="18" y="200.2686">last_access</text><text fill="#D9B8FF" font-family="sans-serif" font-size="14" lengthAdjust="spacing" textLength="66" x="108" y="200.2686">: duration</text><text fill="#D9B8FF" font-family="sans-serif" font-size="14" font-weight="bold" lengthAdjust="spacing" textLength="90" x="18" y="226.5654">last_update</text><text fill="#D9B8FF" font-family="sans-serif" font-size="14" lengthAdjust="spacing" textLength="66" x="108" y="226.5654">: duration</text><text fill="#D9B8FF" font-family="sans-serif" font-size="14" font-weight="bold" lengthAdjust="spacing" textLength="48" x="18" y="252.8623">mtime</text><text fill="#D9B8FF" font-family="sans-serif" font-size="14" lengthAdjust="spacing" textLength="70" x="66" y="252.8623">: datetime</text><text fill="#D9B8FF" font-family="sans-serif" font-size="14" font-weight="bold" lengthAdjust="spacing" textLength="43" x="18" y="279.1592">name</text><text fill="#D9B8FF" font-family="sans-serif" font-size="14" lengthAdjust="spacing" textLength="48" x="61" y="279.1592">: string</text><text fill="#D9B8FF" font-family="sans-serif" font-size="14" font-weight="bold" lengthAdjust="spacing" textLength="34" x="18" y="305.4561">tags</text><text fill="#D9B8FF" font-family="sans-serif" font-size="14" lengthAdjust="spacing" textLength="171" x="52" y="305.4561">: dictionary[string, string]</text></g><!--reverse link quota to bucket_quota--><g id="link_quota_bucket_quota"><path codeLine="44" d="M120.5,657.6 C120.5,688.12 120.5,729.45 120.5,760.01 " fill="none" id="quota-backto-bucket_quota" style="stroke:#FFAF37;stroke-width:2.0;"/><polygon fill="none" points="120.5,639.6,114.5,657.6,126.5,657.6,120.5,639.6" style="stroke:#FFAF37;stroke-width:2.0;"/></g><!--reverse link resource to phantom_resource--><g id="link_resource_phantom_resource"><path codeLine="45" d="M120.5,335.85 C120.5,384.14 120.5,413.37 120.5,438.68 " fill="none" id="resource-backto-phantom_resource" style="stroke:#FFAF37;stroke-width:2.0;"/><polygon fill="none" points="120.5,317.85,114.5,335.85,126.5,335.85,120.5,317.85" style="stroke:#FFAF37;stroke-width:2.0;"/></g><!--reverse link phantom_resource to quota--><g id="link_phantom_resource_quota"><path codeLine="46" d="M120.5,496.81 C120.5,527.33 120.5,568.66 120.5,599.22 " fill="none" id="phantom_resource-backto-quota" style="stroke:#FFAF37;stroke-width:2.0;"/><polygon fill="none" points="120.5,478.81,114.5,496.81,126.5,496.81,120.5,478.81" style="stroke:#FFAF37;stroke-width:2.0;"/></g><!--SRC=[XP9FJm8n4CNl-ocQS2EIW4G1umL9Z5w84M_6aDbsTcbWstKwAy4_tzrTYgJi8jpQztwTcJVfGYiKcEMy4HbcCPABt5AR70WoCIQowubTMHAj986aFwYRzzRmMM0A6Oe7N7qWQmbrucMXvTAWS-8oiEv0BbEoXL6-F1COLrfeEA0cAt1kp4mwBXY3OTGe7YP9dQmNRVLLRt2D3SoIGjeXtMvNzKPrv6ohaxdtn4n_ekY5IvjQniQOZHPRwkIK5H4CsGZwv_yxunCefKqghWBjsSz41kb0dor0sNL59x1oOHl7I6Xva-EaaGf7GvKCZiAF_y6Hh5Odua8kaUVlXMKGNr7qizFp1HYssPpGsO8aXbu33g1s6r9ijs-4AWXOMrCfh3El0MDrBZLvHDEg4bpv1qrQNiiqXqBPY-SWPVd3QnssJf5NjMfETgIF0I_j2pEalgAMrJEWpQltBdRCMndLfxxzxdGw1rkBzkczLzzSr5Ybv_pZNm00]--></g></svg>

<svg xmlns="http://www.w3.org/2000/svg" width="241" height="806" viewBox="0 0 241 806"><rect width="155" height="39.789" x="43" y="760.34" fill="#3D176E" rx="2.5" ry="2.5" style="stroke:#000d19;stroke-width:.5"/><circle cx="58" cy="780.235" r="11" fill="#ADD1B2" style="stroke:#181818;stroke-width:1"/><path d="M60.969 785.875q-.578.297-1.219.438-.64.156-1.344.156-2.5 0-3.828-1.64-1.312-1.657-1.312-4.782t1.312-4.781q1.328-1.656 3.828-1.656.703 0 1.344.156.656.156 1.219.453v2.719q-.625-.578-1.219-.844-.594-.281-1.219-.281-1.343 0-2.031 1.078-.687 1.062-.687 3.156t.687 3.172q.688 1.062 2.031 1.062.625 0 1.219-.265.594-.281 1.219-.86z"/><text x="77" y="786.12" fill="#D9B8FF" font-family="Helvetica" font-size="17" textLength="113">bucket_quota</text><rect width="198" height="39.789" x="21.5" y="438.76" fill="#3D176E" rx="2.5" ry="2.5" style="stroke:#000d19;stroke-width:.5"/><circle cx="36.5" cy="458.654" r="11" fill="#ADD1B2" style="stroke:#181818;stroke-width:1"/><path d="M39.469 464.295q-.578.297-1.219.438-.64.156-1.344.156-2.5 0-3.828-1.64-1.312-1.657-1.312-4.782t1.312-4.781q1.328-1.656 3.828-1.656.703 0 1.344.156.656.156 1.219.453v2.719q-.625-.579-1.219-.844-.594-.281-1.219-.281-1.343 0-2.031 1.078-.687 1.062-.687 3.156t.687 3.172q.688 1.062 2.031 1.062.625 0 1.219-.265.594-.281 1.219-.86z"/><text x="55.5" y="464.54" fill="#D9B8FF" font-family="Helvetica" font-size="17" textLength="156">phantom_resource</text><rect width="90" height="39.789" x="75.5" y="599.55" fill="#3D176E" rx="2.5" ry="2.5" style="stroke:#000d19;stroke-width:.5"/><circle cx="90.5" cy="619.444" r="11" fill="#ADD1B2" style="stroke:#181818;stroke-width:1"/><path d="M93.469 625.085q-.578.297-1.219.438-.64.156-1.344.156-2.5 0-3.828-1.64-1.312-1.657-1.312-4.782t1.312-4.781q1.328-1.657 3.828-1.657.703 0 1.344.157.656.156 1.219.453v2.719q-.625-.579-1.219-.844-.594-.281-1.219-.281-1.344 0-2.031 1.078-.687 1.062-.687 3.156t.687 3.172q.688 1.062 2.031 1.062.625 0 1.219-.265.594-.282 1.219-.86z"/><text x="109.5" y="625.33" fill="#D9B8FF" font-family="Helvetica" font-size="17" textLength="48">quota</text><rect width="227" height="310.758" x="7" y="7" fill="#3D176E" rx="2.5" ry="2.5" style="stroke:#000d19;stroke-width:.5"/><circle cx="75.75" cy="26.895" r="11" fill="#ADD1B2" style="stroke:#181818;stroke-width:1"/><path d="M78.719 32.535q-.578.297-1.219.438-.64.156-1.344.156-2.5 0-3.828-1.64-1.312-1.657-1.312-4.782t1.312-4.781q1.328-1.656 3.828-1.656.703 0 1.344.156.656.156 1.219.453v2.719q-.625-.578-1.219-.844-.594-.281-1.219-.281-1.344 0-2.031 1.078-.687 1.062-.687 3.156t.687 3.172q.688 1.062 2.031 1.062.625 0 1.219-.265.594-.281 1.219-.86z"/><text x="101.25" y="32.78" fill="#D9B8FF" font-family="Helvetica" font-size="17" textLength="71">resource</text><path d="M8 46.789h225" style="stroke:#000d19;stroke-width:.5"/><text x="18" y="68.784" fill="#D9B8FF" font-family="sans-serif" font-size="14" font-weight="bold" textLength="29">age</text><text x="47" y="68.784" fill="#D9B8FF" font-family="sans-serif" font-size="14" textLength="66">: duration</text><text x="18" y="95.081" fill="#D9B8FF" font-family="sans-serif" font-size="14" font-weight="bold" textLength="43">atime</text><text x="61" y="95.081" fill="#D9B8FF" font-family="sans-serif" font-size="14" textLength="70">: datetime</text><text x="18" y="121.378" fill="#D9B8FF" font-family="sans-serif" font-size="14" font-weight="bold" textLength="43">ctime</text><text x="61" y="121.378" fill="#D9B8FF" font-family="sans-serif" font-size="14" textLength="70">: datetime</text><text x="18" y="147.675" fill="#D9B8FF" font-family="sans-serif" font-size="14" font-weight="bold" textLength="14">id</text><text x="32" y="147.675" fill="#D9B8FF" font-family="sans-serif" font-size="14" textLength="48">: string</text><text x="18" y="173.972" fill="#D9B8FF" font-family="sans-serif" font-size="14" font-weight="bold" textLength="33">kind</text><text x="51" y="173.972" fill="#D9B8FF" font-family="sans-serif" font-size="14" textLength="48">: string</text><text x="18" y="200.269" fill="#D9B8FF" font-family="sans-serif" font-size="14" font-weight="bold" textLength="90">last_access</text><text x="108" y="200.269" fill="#D9B8FF" font-family="sans-serif" font-size="14" textLength="66">: duration</text><text x="18" y="226.565" fill="#D9B8FF" font-family="sans-serif" font-size="14" font-weight="bold" textLength="90">last_update</text><text x="108" y="226.565" fill="#D9B8FF" font-family="sans-serif" font-size="14" textLength="66">: duration</text><text x="18" y="252.862" fill="#D9B8FF" font-family="sans-serif" font-size="14" font-weight="bold" textLength="48">mtime</text><text x="66" y="252.862" fill="#D9B8FF" font-family="sans-serif" font-size="14" textLength="70">: datetime</text><text x="18" y="279.159" fill="#D9B8FF" font-family="sans-serif" font-size="14" font-weight="bold" textLength="43">name</text><text x="61" y="279.159" fill="#D9B8FF" font-family="sans-serif" font-size="14" textLength="48">: string</text><text x="18" y="305.456" fill="#D9B8FF" font-family="sans-serif" font-size="14" font-weight="bold" textLength="34">tags</text><text x="52" y="305.456" fill="#D9B8FF" font-family="sans-serif" font-size="14" textLength="171">: dictionary[string, string]</text><path fill="none" d="M120.5 657.6v102.41m0-120.41-6 18h12zm0-303.75v102.83m0-120.83-6 18h12zm0 178.96v102.41m0-120.41-6 18h12z" style="stroke:#ffaf37;stroke-width:2"/></svg>
